X: 36777
T: Shepherd's Hey
R: reel
M: 4/4
K: Gmajor
|:BcdB cg~g2|BcdB AD~D2|BcdB cgge|fdcA BGGA:|
|:BAGB cAAd|BAGB AD~D2|BAGB cdeg|fdcA BGGA:|

